packages/icons/src/assets/file-globe.svg

<svg xmlns="http://www.w3.org/2000/svg" xml:space="preserve" style="fill-rule:evenodd;clip-rule:evenodd;stroke-linejoin:round;stroke-miterlimit:2" viewBox="0 0 33 33"><path d="M13.02 27.02h-6c-.55 0-1-.45-1-1v-14.6l6.098-6.4h9.902v7h2v-9H11.262l-7.242 7.6v15.4c0 1.65 1.35 3 3 3h6z"/><path d="M8.02 21.02h3v-2h-3zm0-4h5v-2h-5zm3-13v6h-5.8v2h7.8v-8zm11 10c-4.415 0-8 3.585-8 8s3.585 8 8 8 8-3.585 8-8-3.585-8-8-8m0 2c3.311 0 6 2.689 6 6s-2.689 6-6 6-6-2.689-6-6 2.689-6 6-6"/><path d="M22.02 14.02c-.763 0-1.515.377-2.149 1.145-1.064 1.288-1.851 3.867-1.851 6.855s.787 5.567 1.851 6.855c.634.768 1.386 1.145 2.149 1.145s1.515-.377 2.149-1.145c1.064-1.288 1.851-3.867 1.851-6.855s-.787-5.567-1.851-6.855c-.634-.768-1.386-1.145-2.149-1.145m0 2c.119 0 .227.063.334.147.211.163.398.409.574.709.677 1.159 1.092 3.035 1.092 5.144s-.415 3.985-1.092 5.144c-.176.3-.363.546-.574.709-.107.084-.215.147-.334.147s-.227-.063-.334-.147c-.211-.163-.398-.409-.574-.709-.677-1.159-1.092-3.035-1.092-5.144s.415-3.985 1.092-5.144c.176-.3.363-.546.574-.709.107-.084.215-.147.334-.147"/><path d="M15.02 23.02h14v-2h-14z"/></svg>

<?xml version="1.0" encoding="UTF-8" standalone="no"?><!DOCTYPE svg PUBLIC "-//W3C//DTD SVG 1.1//EN" "http://www.w3.org/Graphics/SVG/1.1/DTD/svg11.dtd"><svg width="100%" height="100%" viewBox="0 0 33 33" version="1.1" xmlns="http://www.w3.org/2000/svg" xmlns:xlink="http://www.w3.org/1999/xlink" xml:space="preserve" style="fill-rule:evenodd;clip-rule:evenodd;stroke-linejoin:round;stroke-miterlimit:2;"><path d="M13.02,27.02L7.02,27.02C6.47,27.02 6.02,26.57 6.02,26.02L6.02,11.42C6.02,11.42 12.118,5.02 12.118,5.02C12.118,5.02 22.02,5.02 22.02,5.02C22.02,5.02 22.02,12.02 22.02,12.02L24.02,12.02L24.02,3.02L11.262,3.02L4.02,10.62L4.02,26.02C4.02,27.67 5.37,29.02 7.02,29.02C7.02,29.02 13.02,29.02 13.02,29.02L13.02,27.02Z"/><path d="M8.02,21.02L11.02,21.02L11.02,19.02L8.02,19.02L8.02,21.02ZM8.02,17.02L13.02,17.02L13.02,15.02L8.02,15.02L8.02,17.02ZM11.02,4.02L11.02,10.02C11.02,10.02 5.22,10.02 5.22,10.02L5.22,12.02L13.02,12.02L13.02,4.02L11.02,4.02Z"/><path d="M22.02,14.02C17.605,14.02 14.02,17.605 14.02,22.02C14.02,26.435 17.605,30.02 22.02,30.02C26.435,30.02 30.02,26.435 30.02,22.02C30.02,17.605 26.435,14.02 22.02,14.02ZM22.02,16.02C25.331,16.02 28.02,18.709 28.02,22.02C28.02,25.331 25.331,28.02 22.02,28.02C18.709,28.02 16.02,25.331 16.02,22.02C16.02,18.709 18.709,16.02 22.02,16.02Z"/><path d="M22.02,14.02C21.257,14.02 20.505,14.397 19.871,15.165C18.807,16.453 18.02,19.032 18.02,22.02C18.02,25.008 18.807,27.587 19.871,28.875C20.505,29.643 21.257,30.02 22.02,30.02C22.783,30.02 23.535,29.643 24.169,28.875C25.233,27.587 26.02,25.008 26.02,22.02C26.02,19.032 25.233,16.453 24.169,15.165C23.535,14.397 22.783,14.02 22.02,14.02ZM22.02,16.02C22.139,16.02 22.247,16.083 22.354,16.167C22.565,16.33 22.752,16.576 22.928,16.876C23.605,18.035 24.02,19.911 24.02,22.02C24.02,24.129 23.605,26.005 22.928,27.164C22.752,27.464 22.565,27.71 22.354,27.873C22.247,27.957 22.139,28.02 22.02,28.02C21.901,28.02 21.793,27.957 21.686,27.873C21.475,27.71 21.288,27.464 21.112,27.164C20.435,26.005 20.02,24.129 20.02,22.02C20.02,19.911 20.435,18.035 21.112,16.876C21.288,16.576 21.475,16.33 21.686,16.167C21.793,16.083 21.901,16.02 22.02,16.02Z"/><path d="M15.02,23.02L29.02,23.02L29.02,21.02L15.02,21.02L15.02,23.02Z"/></svg>
